svg/torch.svg

<svg xmlns="http://www.w3.org/2000/svg" viewBox="0 0 26 64" enable-background="new 0 0 26 64"><style type="text/css">.st0{fill:#343434;}</style><title>torch</title><desc>Created with Sketch.</desc><path class="st0" d="M25 24c.6-1.5 1-3.2 1-5 0-3.4-5.2-14.3-11.2-9.4l-6.2-6.6c-.3-2.8-1.7-3-3-.6 0 0-5.6 9.4-5.6 16.6 0 1.8.4 3.5 1 5h-.8c-.1.7-.2 1.3-.2 2 0 4 1.8 7.5 4.6 9.9l2.4 20.2c.4 3.5 2.7 6.4 5.8 7.9h.5c3.1-1.5 5.4-4.5 5.8-7.9l2.4-20.2c2.7-2.4 4.5-5.9 4.5-9.9 0-.7-.1-1.3-.2-2h-.8zm-22-5c0-1.1.2-2.3.5-3.6.4-1.9 1.2-4 2.1-6.2l.6-1.4c.5 2.2 1.4 3.9 2.9 5 2.3 1.7 5.1 1.3 7.7-.9 1.2-1 2.1-.7 3.6 1.1.8 1 1.5 2.2 2 3.5.4 1.1.7 2.1.7 2.5 0 1.8-.5 3.5-1.3 5h-3.8v-.5c0-2.8-2.2-7.5-5-7.5s-5 4.8-5 7.5v.5h-3.7c-.8-1.5-1.3-3.2-1.3-5zm8 4.5c0-.8.4-2.2 1.1-3.3.3-.5.6-.9.9-1.1.3.2.6.6.9 1.1.6 1.1 1.1 2.5 1.1 3.3 0 .2 0 .3-.1.5h-3.9v-.5zm5.1 32.2c-.2 1.9-1.4 3.8-3.1 5-1.7-1.2-2.8-3-3.1-5l-2.2-18.7h10.5l-2.1 18.7zm3.4-22.1l-.5.4h-12l-.5-.4c-2-1.7-3.2-4-3.5-6.6h20c-.3 2.6-1.6 4.9-3.5 6.6zM11 45.1c-.6 0-1 .5-.9 1.1l.8 9c0 .6.5 1 1.1.9s1-.5.9-1.1l-.8-9c-.1-.6-.6-1-1.1-.9z"/></svg>

<?xml version="1.0" encoding="utf-8"?>
<!-- Generator: Adobe Illustrator 21.0.0, SVG Export Plug-In . SVG Version: 6.00 Build 0)  -->
<svg version="1.1" id="Layer_1" xmlns="http://www.w3.org/2000/svg" xmlns:xlink="http://www.w3.org/1999/xlink" x="0px" y="0px"
	 viewBox="0 0 26 64" style="enable-background:new 0 0 26 64;" xml:space="preserve">
<style type="text/css">
	.st0{fill:#343434;}
</style>
<title>torch</title>
<desc>Created with Sketch.</desc>
<g>
	<path class="st0" d="M25,24c0.6-1.5,1-3.2,1-5c0-3.4-5.2-14.3-11.2-9.4S8.6,3,8.6,3C8.3,0.2,6.9,0,5.6,2.4C5.6,2.4,0,11.8,0,19
		c0,1.8,0.4,3.5,1,5H0.2C0.1,24.7,0,25.3,0,26c0,4,1.8,7.5,4.6,9.9l2.4,20.2c0.4,3.5,2.7,6.4,5.8,7.9h0.5c3.1-1.5,5.4-4.5,5.8-7.9
		l2.4-20.2C24.2,33.5,26,30,26,26c0-0.7-0.1-1.3-0.2-2H25z M3,19c0-1.1,0.2-2.3,0.5-3.6c0.4-1.9,1.2-4,2.1-6.2
		C5.8,8.7,6,8.3,6.2,7.8c0.5,2.2,1.4,3.9,2.9,5c2.3,1.7,5.1,1.3,7.7-0.9c1.2-1,2.1-0.7,3.6,1.1c0.8,1,1.5,2.2,2,3.5
		c0.4,1.1,0.7,2.1,0.7,2.5c0,1.8-0.5,3.5-1.3,5H18c0-0.2,0-0.3,0-0.5c0-2.8-2.2-7.5-5-7.5s-5,4.8-5,7.5c0,0.2,0,0.3,0,0.5H4.3
		C3.5,22.5,3,20.8,3,19z M11,23.5c0-0.8,0.4-2.2,1.1-3.3c0.3-0.5,0.6-0.9,0.9-1.1c0,0,0,0,0,0c0,0,0,0,0,0c0.3,0.2,0.6,0.6,0.9,1.1
		c0.6,1.1,1.1,2.5,1.1,3.3c0,0.2,0,0.3-0.1,0.5h-3.9C11,23.9,11,23.7,11,23.5z M16.1,55.7c-0.2,1.9-1.4,3.8-3.1,5
		c-1.7-1.2-2.8-3-3.1-5L7.7,37h10.5L16.1,55.7z M19.5,33.6L19,34H7v0l-0.5-0.4c-2-1.7-3.2-4-3.5-6.6h6.3h7.2H23
		C22.7,29.6,21.4,31.9,19.5,33.6z"/>
	<path class="st0" d="M11,45.1c-0.6,0-1,0.5-0.9,1.1l0.8,9c0,0.6,0.5,1,1.1,0.9s1-0.5,0.9-1.1l-0.8-9C12,45.4,11.5,45,11,45.1z"/>
</g>
</svg>
